ОкеанВКонцеДороги/svg/decorative frame.svg

<svg width="63" height="65" viewBox="0 0 63 65" fill="none" xmlns="http://www.w3.org/2000/svg">
<path d="M58.9492 42.5102C58.9492 42.5102 58.7525 41.8783 58.7822 41.4811C58.8118 41.0838 59.0398 40.9975 59.4756 40.4562C60.4062 39.3 61.101 37.7062 60.7967 35.9528C60.7108 35.4573 60.6144 34.9714 60.5185 34.4812C60.4673 34.2192 60.2242 33.4595 60.3374 33.7012C61.0495 35.2213 63.0536 37.1737 61.4437 38.7261C58.7456 41.3277 58.9492 42.5102 58.9492 42.5102Z" fill="#A18F8C"/>
<path d="M42.4256 4.02477C42.4891 4.40041 42.4265 4.78373 42.7694 5.15943C43.1437 5.56938 43.521 5.81985 44.5128 5.69493C45.6106 5.55666 46.3773 4.12077 46.9898 4.65902C47.4159 5.03345 47.2311 6.68483 47.3201 7.19982C47.568 8.63433 47.6903 9.69554 48.5859 10.8336C49.6267 12.1562 53.3931 10.776 54.1676 11.7602C55.4286 13.3628 54.4339 15.0285 53.6069 16.461C53.3728 16.8664 52.8759 17.2468 52.5337 17.5503C52.3468 17.716 51.7323 18.1118 51.9734 18.0472C52.5885 17.8823 53.2839 17.5162 53.7492 17.0729C55.5092 15.3963 57.1481 12.7678 55.804 10.3467C55.1874 9.23591 54.1077 9.32772 53.0095 9.62196C52.6675 9.7136 52.4225 9.70247 52.0806 9.63242C51.9452 9.60477 51.713 9.53971 51.8464 9.50396C53.0694 9.17624 52.7719 7.41803 54.7738 6.77061C55.3525 6.58351 55.8101 6.58767 56.4888 6.84703C57.7553 7.33116 58.0709 8.39058 58.0709 8.39058C58.0709 8.39058 57.9621 7.71355 57.7226 7.35016C56.637 5.70297 55.3541 5.80527 54.2483 5.9963C51.8857 6.40457 52.5521 8.88626 50.6984 8.35603C48.4335 7.70806 49.3892 4.14224 47.4619 3.42242C46.8133 3.18021 45.4197 4.75493 44.6889 4.94366C44.1093 5.09332 43.8511 5.07288 43.3919 4.81232C43.2063 4.70705 42.7957 4.19055 42.6509 3.92633C42.5061 3.66211 42.4455 3.39214 42.4455 3.39214C42.4455 3.39214 42.3986 3.86441 42.4256 4.02477Z" fill="#A18F8C"/>
<path d="M39.7221 3.13933C37.0072 2.00553 36.3293 1.59085 34.508 1.33607C32.6433 1.07525 28.114 2.12724 26.7598 3.78605C26.0779 4.6214 26.5412 5.96688 25.8788 6.72672C25.2822 7.41118 25.1279 5.29957 25.3626 4.60699C25.5973 3.91441 28.1367 1.65512 25.5668 1.6543C23.5166 1.65357 21.4075 4.85151 22.6377 6.53082C23.0213 7.05447 23.2786 7.24515 23.8213 7.55552C24.112 7.72178 24.711 7.77628 24.6616 7.84256C24.5346 8.013 23.6146 7.92838 23.1267 7.67359C22.3761 7.28151 21.6457 6.46346 21.5088 5.64721C21.2012 3.81311 22.1204 2.56281 22.0167 2.40727C21.9207 2.26316 21.7196 3.02334 21.2426 3.53604C20.8195 3.99084 20.3677 4.65671 18.8417 4.75342C17.3158 4.85 15.9748 4.1335 15.5806 2.68659C15.3622 1.88414 15.5332 3.10584 17.102 3.55797C18.2212 3.88053 19.7239 2.67672 20.6763 2.04222C24.5694 -0.551169 29.8501 -0.370492 34.5202 0.903913C35.9775 1.30146 37.507 2.13962 39.7221 3.13933Z" fill="#A18F8C"/>
<path d="M43.7662 58.3974C43.7662 58.3974 43.6312 60.7272 41.5883 61.048C39.5454 61.3688 38.9208 60.0687 37.6039 60.8454C36.2871 61.6219 35.2403 64.1882 33.6533 64.4583C32.0662 64.7285 29.1963 64.4921 27.643 63.3779C26.0898 62.2635 25.769 60.5922 24.6379 59.9C23.5068 59.2077 22.7639 59.2752 21.3795 59.6805C19.995 60.0857 18.2088 60.0265 16.739 59.522C15.2692 59.0173 13.0424 57.7998 11.6932 56.1874C10.3441 54.5748 9.45559 52.5675 8.84133 51.8216C8.22697 51.0757 6.95047 49.6737 5.17395 48.9268C3.39753 48.1798 2.08518 48.1999 1.98419 45.9793C1.8834 43.7586 3.29099 43.6153 1.02555 40.9346C-1.23968 38.2539 0.770665 39.4715 2.05446 40.2834C3.33815 41.0951 4.54633 42.1144 5.11272 42.9829C5.679 43.8512 5.2921 44.6157 5.3487 45.2199C5.40531 45.8239 4.75406 46.3998 5.05601 47.0794C5.35815 47.759 6.14152 48.4102 7.6802 48.684C9.21868 48.9578 9.53162 49.1777 10.1074 50.0365C10.6832 50.8955 10.1912 51.9908 10.1143 52.6538C10.0376 53.3168 10.8434 54.959 12.9131 56.4715C14.0019 57.2671 14.4042 57.2166 16.3469 57.7278C17.4078 58.007 18.0645 58.6987 18.8891 58.9442C19.7135 59.1898 20.0798 59.1994 21.1729 59.1743C22.266 59.1493 23.2898 58.6597 24.7084 59.3439C26.1268 60.0283 26.1936 60.4789 27.0115 61.1965C27.8292 61.9141 28.6778 62.8377 31.5736 63.2666C34.4696 63.6957 34.8986 62.4801 35.4617 62.1136C36.0247 61.7473 37.4949 60.3397 38.2143 59.9848C38.9336 59.6299 39.9445 59.8127 40.5928 60.1382C41.2412 60.4637 41.6449 60.6206 42.3699 60.0875C43.0522 59.5858 43.2729 59.2949 43.7662 58.3974Z" fill="#A18F8C"/>
</svg>

<svg xmlns="http://www.w3.org/2000/svg" width="63" height="65" fill="none" viewBox="0 0 63 65"><path fill="#a18f8c" d="M58.95 42.51s-.198-.632-.168-1.029.258-.483.694-1.025c.93-1.156 1.625-2.75 1.32-4.503-.085-.496-.182-.982-.277-1.472-.052-.262-.295-1.022-.182-.78.712 1.52 2.717 3.473 1.107 5.025-2.698 2.602-2.495 3.784-2.495 3.784M42.426 4.025c.063.375 0 .759.343 1.134.375.41.752.66 1.744.536 1.098-.138 1.864-1.574 2.477-1.036.426.374.241 2.026.33 2.54.248 1.435.37 2.497 1.266 3.635 1.04 1.322 4.807-.058 5.582.926 1.26 1.603.266 3.268-.561 4.701-.234.405-.731.786-1.073 1.09-.187.165-.802.56-.56.496.615-.165 1.31-.53 1.775-.974 1.76-1.677 3.4-4.305 2.055-6.726-.617-1.111-1.696-1.02-2.794-.725-.343.092-.587.08-.93.01-.135-.027-.367-.092-.234-.128 1.223-.328.926-2.086 2.928-2.733.578-.187 1.036-.183 1.715.076 1.266.484 1.582 1.544 1.582 1.544s-.109-.677-.348-1.04c-1.086-1.648-2.369-1.546-3.475-1.355-2.362.409-1.696 2.89-3.55 2.36-2.264-.648-1.309-4.214-3.236-4.934-.649-.242-2.042 1.333-2.773 1.522-.58.15-.838.129-1.297-.132-.186-.105-.596-.621-.741-.886a2.3 2.3 0 0 1-.206-.534s-.046.472-.02.633M39.722 3.14c-2.715-1.134-3.393-1.55-5.214-1.804-1.865-.26-6.394.791-7.748 2.45-.682.835-.219 2.18-.881 2.94-.597.685-.751-1.426-.516-2.119s2.774-2.952.204-2.953c-2.05 0-4.16 3.198-2.93 4.877.384.523.642.714 1.184 1.025.291.166.89.22.84.287-.126.17-1.046.085-1.534-.17-.75-.391-1.481-1.21-1.618-2.026-.308-1.834.611-3.084.508-3.24-.096-.144-.297.616-.774 1.129-.423.455-.875 1.12-2.401 1.217s-2.867-.62-3.261-2.066c-.219-.803-.048.419 1.521.871 1.12.323 2.622-.881 3.574-1.516C24.57-.55 29.85-.37 34.52.904c1.457.397 2.987 1.236 5.202 2.235M43.766 58.397s-.135 2.33-2.178 2.651-2.667-.98-3.984-.203-2.364 3.343-3.95 3.613c-1.588.27-4.458.034-6.011-1.08s-1.874-2.786-3.005-3.478-1.874-.625-3.259-.22c-1.384.406-3.17.346-4.64-.158-1.47-.505-3.697-1.722-5.046-3.335s-2.237-3.62-2.852-4.365-1.89-2.148-3.667-2.895-3.089-.727-3.19-2.948 1.307-2.364-.958-5.044c-2.266-2.681-.255-1.464 1.028-.652 1.284.812 2.492 1.831 3.059 2.7.566.868.18 1.633.236 2.237s-.595 1.18-.293 1.86c.302.679 1.086 1.33 2.624 1.604s1.852.494 2.427 1.352c.576.86.084 1.955.007 2.618-.076.663.73 2.305 2.8 3.817 1.088.796 1.49.746 3.433 1.257 1.06.279 1.717.97 2.542 1.216s1.19.255 2.284.23 2.117-.514 3.535.17 1.486 1.135 2.304 1.852 1.666 1.642 4.562 2.07c2.896.43 3.325-.786 3.888-1.152.563-.367 2.033-1.774 2.752-2.13.72-.354 1.73-.171 2.379.154.648.326 1.052.483 1.777-.05.682-.502.903-.793 1.396-1.69"/></svg>
